packages/icon/src/images/social/social-x.svg

<svg width="13" height="12" viewBox="0 0 13 12" fill="none" xmlns="http://www.w3.org/2000/svg">
<path d="M0.0311977 0L4.98127 6.6186L0 11.9998H1.12117L5.48237 7.28838L9.00596 11.9998H12.8211L7.59239 5.00902L12.229 0H11.1078L7.09151 4.33903L3.84633 0H0.0311977ZM1.67993 0.825765H3.43258L11.1721 11.1741H9.41949L1.67993 0.825765Z" fill="#19151C"/>
</svg>

<svg xmlns="http://www.w3.org/2000/svg" viewBox="0 0 13 12" style="enable-background:new 0 0 13 12" xml:space="preserve"><path d="m7.6 5 4.6-5h-1.1l-4 4.3L3.8 0H0l5 6.6L0 12h1.1l4.4-4.7L9 12h3.8L7.6 5zM1.7.8h1.8l7.7 10.3H9.4L1.7.8z" style="fill:#19151c"/></svg>
